X: 55
T:One More Step ...
% Nottingham Music Database
S:H \& S, via EF
M:4/4
L:1/4
K:G
"G"GG G3/4A/4B/2G/2|"D"AD D2|"D7"AA A3/4B/4c/2A/2|"G"BG "G"G2|\
"G"B/2d3/2 "G7"BG|"C"E/2G3/2 "G"D2|
"Em"GG "D7"F3/4G/4A/2F/2|"G"G"C"G "G"GB/2c/2|"Bm"d3/2d/2 "C"cB|\
"Am"A/2G/2F/2E/2 "D7"D2|"G"GG "D7"F3/4G/4A/2F/2|"G"G"C"G "G"G2:|


